Icons/ru_mail_mailapp.svg

<svg viewBox="0 0 48 48" xmlns:xlink="http://www.w3.org/1999/xlink">
 <defs>
  <linearGradient id="0">
   <stop stop-opacity="0"/>
   <stop offset="1"/>
  </linearGradient>
  <linearGradient xlink:href="#0" id="1" gradientUnits="userSpaceOnUse" gradientTransform="translate(4e-7,-48)" y1="47" x2="0" y2="1"/>
  <clipPath id="2">
   <g transform="translate(0,-1004.3622)">
    <rect rx="4" y="1005.36" x="1" height="46" width="46" fill="#1890d0"/>
   </g>
  </clipPath>
  <clipPath id="3">
   <g transform="translate(0,-1004.3622)">
    <rect rx="4" y="1005.36" x="1" height="46" width="46" fill="#1890d0"/>
   </g>
  </clipPath>
 </defs>
 <g>
  <g transform="translate(0,-1004.3622)">
   <path d="m 5,1006.3622 c -2.216,0 -4,1.784 -4,4 l 0,37.25 c 0,2.216 1.784,4 4,4 l 38,0 c 2.216,0 4,-1.784 4,-4 l 0,-37.25 c 0,-2.216 -1.784,-4 -4,-4 l -38,0 z m -4,41.5 0,0.5 c 0,2.216 1.784,4 4,4 l 38,0 c 2.216,0 4,-1.784 4,-4 l 0,-0.5 c 0,2.216 -1.784,4 -4,4 l -38,0 c -2.216,0 -4,-1.784 -4,-4 z" opacity="0.02"/>
   <path d="m 1,1047.6122 0,0.25 c 0,2.216 1.784,4 4,4 l 38,0 c 2.216,0 4,-1.784 4,-4 l 0,-0.25 c 0,2.216 -1.784,4 -4,4 l -38,0 c -2.216,0 -4,-1.784 -4,-4 z" opacity="0.05"/>
   <rect width="46" height="46" x="1" y="1005.61" rx="4" opacity="0.1"/>
  </g>
 </g>
 <g>
  <g transform="translate(0,-1004.3622)">
   <rect rx="4" y="1005.36" x="1" height="46" width="46" fill="#295dab"/>
  </g>
 </g>
 <g>
  <rect transform="scale(1,-1)" width="46" height="46" x="1" y="-46.998" rx="4" opacity="0.1" fill="url(#1)"/>
 </g>
 <g>
  <g clip-path="url(#2)">
   <g opacity="0.1">
    <g>
     <path d="M 28.488281 23.875 C 28.34375 20.878906 26.207031 19.078125 23.632812 19.078125 L 23.535156 19.078125 C 20.5625 19.078125 18.910156 21.515625 18.910156 24.285156 C 18.910156 27.382812 20.90625 29.34375 23.523438 29.34375 C 26.441406 29.34375 28.359375 27.117188 28.496094 24.480469 Z M 23.550781 16.398438 C 25.535156 16.398438 27.40625 17.3125 28.777344 18.746094 L 28.777344 18.753906 C 28.777344 18.0625 29.21875 17.546875 29.835938 17.546875 L 29.992188 17.542969 C 30.957031 17.542969 31.15625 18.496094 31.15625 18.796875 L 31.160156 29.496094 C 31.09375 30.195312 31.855469 30.558594 32.277344 30.109375 C 33.925781 28.34375 35.898438 21.03125 31.25 16.796875 C 26.921875 12.847656 21.113281 13.5 18.027344 15.71875 C 14.742188 18.078125 12.640625 23.304688 14.683594 28.210938 C 16.90625 33.5625 23.273438 35.160156 27.058594 33.566406 C 28.972656 32.761719 29.859375 35.460938 27.867188 36.34375 C 24.863281 37.675781 16.492188 37.542969 12.582031 30.484375 C 9.941406 25.71875 10.082031 17.332031 17.085938 12.984375 C 22.445312 9.660156 29.511719 10.582031 33.773438 15.21875 C 38.226562 20.070312 37.96875 29.148438 33.625 32.679688 C 31.65625 34.28125 28.730469 32.722656 28.75 30.382812 L 28.730469 29.621094 C 27.359375 31.039062 25.535156 31.863281 23.550781 31.863281 C 19.621094 31.863281 16.167969 28.265625 16.167969 24.171875 C 16.167969 20.039062 19.621094 16.398438 23.550781 16.398438 " fill-rule="evenodd"/>
    </g>
   </g>
  </g>
 </g>
 <g>
  <g clip-path="url(#3)">
   <g transform="translate(0,-1)">
    <g>
     <path d="M 28.488281 23.875 C 28.34375 20.878906 26.207031 19.078125 23.632812 19.078125 L 23.535156 19.078125 C 20.5625 19.078125 18.910156 21.515625 18.910156 24.285156 C 18.910156 27.382812 20.90625 29.34375 23.523438 29.34375 C 26.441406 29.34375 28.359375 27.117188 28.496094 24.480469 Z M 23.550781 16.398438 C 25.535156 16.398438 27.40625 17.3125 28.777344 18.746094 L 28.777344 18.753906 C 28.777344 18.0625 29.21875 17.546875 29.835938 17.546875 L 29.992188 17.542969 C 30.957031 17.542969 31.15625 18.496094 31.15625 18.796875 L 31.160156 29.496094 C 31.09375 30.195312 31.855469 30.558594 32.277344 30.109375 C 33.925781 28.34375 35.898438 21.03125 31.25 16.796875 C 26.921875 12.847656 21.113281 13.5 18.027344 15.71875 C 14.742188 18.078125 12.640625 23.304688 14.683594 28.210938 C 16.90625 33.5625 23.273438 35.160156 27.058594 33.566406 C 28.972656 32.761719 29.859375 35.460938 27.867188 36.34375 C 24.863281 37.675781 16.492188 37.542969 12.582031 30.484375 C 9.941406 25.71875 10.082031 17.332031 17.085938 12.984375 C 22.445312 9.660156 29.511719 10.582031 33.773438 15.21875 C 38.226562 20.070312 37.96875 29.148438 33.625 32.679688 C 31.65625 34.28125 28.730469 32.722656 28.75 30.382812 L 28.730469 29.621094 C 27.359375 31.039062 25.535156 31.863281 23.550781 31.863281 C 19.621094 31.863281 16.167969 28.265625 16.167969 24.171875 C 16.167969 20.039062 19.621094 16.398438 23.550781 16.398438 " fill="#ffb400" fill-rule="evenodd"/>
    </g>
   </g>
  </g>
 </g>
 <g>
  <g transform="translate(0,-1004.3622)">
   <path d="m 1,1043.3622 0,4 c 0,2.216 1.784,4 4,4 l 38,0 c 2.216,0 4,-1.784 4,-4 l 0,-4 c 0,2.216 -1.784,4 -4,4 l -38,0 c -2.216,0 -4,-1.784 -4,-4 z" opacity="0.1"/>
  </g>
 </g>
</svg>

<svg viewBox="0 0 48 48"><defs><linearGradient id="linearGradient3764" x1="1" x2="47" gradientUnits="userSpaceOnUse" gradientTransform="translate(-48.000001,0.00221467)"><stop stop-color="#25549b" stop-opacity="1"/><stop offset="1" stop-color="#295dab" stop-opacity="1"/></linearGradient><clipPath id="clipPath-828067658"><g transform="translate(0,-1004.3622)"><rect rx="4" y="1005.36" x="1" height="46" width="46" fill="#1890d0"/></g></clipPath><clipPath id="clipPath-841893516"><g transform="translate(0,-1004.3622)"><rect rx="4" y="1005.36" x="1" height="46" width="46" fill="#1890d0"/></g></clipPath></defs><g><path d="m 1 43 l 0 0.25 c 0 2.216 1.784 4 4 4 l 38 0 c 2.216 0 4 -1.784 4 -4 l 0 -0.25 c 0 2.216 -1.784 4 -4 4 l -38 0 c -2.216 0 -4 -1.784 -4 -4 z m 0 0.5 l 0 0.5 c 0 2.216 1.784 4 4 4 l 38 0 c 2.216 0 4 -1.784 4 -4 l 0 -0.5 c 0 2.216 -1.784 4 -4 4 l -38 0 c -2.216 0 -4 -1.784 -4 -4 z" opacity="0.02"/><path d="m 1 43.25 l 0 0.25 c 0 2.216 1.784 4 4 4 l 38 0 c 2.216 0 4 -1.784 4 -4 l 0 -0.25 c 0 2.216 -1.784 4 -4 4 l -38 0 c -2.216 0 -4 -1.784 -4 -4 z" opacity="0.05"/><path d="m 1 43 l 0 0.25 c 0 2.216 1.784 4 4 4 l 38 0 c 2.216 0 4 -1.784 4 -4 l 0 -0.25 c 0 2.216 -1.784 4 -4 4 l -38 0 c -2.216 0 -4 -1.784 -4 -4 z" opacity="0.1"/></g><g><rect width="46" height="46" x="-47" y="1" rx="4" transform="matrix(0,-1,1,0,0,0)" fill="url(#linearGradient3764)" fill-opacity="1"/></g><g><g clip-path="url(#clipPath-828067658)"><g opacity="0.1"><!-- color: #295dab --><g><path d="m 28.488 23.875 c -0.145 -2.996 -2.281 -4.797 -4.855 -4.797 l -0.098 0 c -2.973 0 -4.625 2.438 -4.625 5.207 c 0 3.098 1.996 5.059 4.613 5.059 c 2.918 0 4.836 -2.227 4.973 -4.863 m -4.945 -8.08 c 1.984 0 3.855 0.914 5.227 2.348 l 0 0.008 c 0 -0.691 0.441 -1.207 1.059 -1.207 l 0.156 -0.004 c 0.965 0 1.164 0.953 1.164 1.254 l 0.004 10.699 c -0.066 0.699 0.695 1.063 1.117 0.613 c 1.648 -1.766 3.621 -9.08 -1.027 -13.313 c -4.328 -3.949 -10.137 -3.297 -13.223 -1.078 c -3.285 2.359 -5.387 7.586 -3.344 12.492 c 2.223 5.352 8.59 6.949 12.375 5.355 c 1.914 -0.805 2.801 1.895 0.809 2.777 c -3 1.332 -11.375 1.199 -15.285 -5.859 c -2.641 -4.766 -2.5 -13.152 4.504 -17.5 c 5.359 -3.324 12.426 -2.402 16.688 2.234 c 4.453 4.852 4.195 13.93 -0.148 17.461 c -1.969 1.602 -4.895 0.043 -4.875 -2.297 l -0.02 -0.762 c -1.371 1.418 -3.195 2.242 -5.18 2.242 c -3.93 0 -7.383 -3.598 -7.383 -7.691 c 0 -4.133 3.453 -7.773 7.383 -7.773" fill-rule="evenodd" fill="#000"/></g></g></g></g><g><g clip-path="url(#clipPath-841893516)"><g transform="translate(0,-1)"><!-- color: #295dab --><g><path d="m 28.488 23.875 c -0.145 -2.996 -2.281 -4.797 -4.855 -4.797 l -0.098 0 c -2.973 0 -4.625 2.438 -4.625 5.207 c 0 3.098 1.996 5.059 4.613 5.059 c 2.918 0 4.836 -2.227 4.973 -4.863 m -4.945 -8.08 c 1.984 0 3.855 0.914 5.227 2.348 l 0 0.008 c 0 -0.691 0.441 -1.207 1.059 -1.207 l 0.156 -0.004 c 0.965 0 1.164 0.953 1.164 1.254 l 0.004 10.699 c -0.066 0.699 0.695 1.063 1.117 0.613 c 1.648 -1.766 3.621 -9.08 -1.027 -13.313 c -4.328 -3.949 -10.137 -3.297 -13.223 -1.078 c -3.285 2.359 -5.387 7.586 -3.344 12.492 c 2.223 5.352 8.59 6.949 12.375 5.355 c 1.914 -0.805 2.801 1.895 0.809 2.777 c -3 1.332 -11.375 1.199 -15.285 -5.859 c -2.641 -4.766 -2.5 -13.152 4.504 -17.5 c 5.359 -3.324 12.426 -2.402 16.688 2.234 c 4.453 4.852 4.195 13.93 -0.148 17.461 c -1.969 1.602 -4.895 0.043 -4.875 -2.297 l -0.02 -0.762 c -1.371 1.418 -3.195 2.242 -5.18 2.242 c -3.93 0 -7.383 -3.598 -7.383 -7.691 c 0 -4.133 3.453 -7.773 7.383 -7.773" fill="#ffb400" fill-rule="evenodd"/></g></g></g></g><g><g transform="translate(0,-1004.3622)"><path d="m 1 1043.36 0 4 c 0 2.216 1.784 4 4 4 l 38 0 c 2.216 0 4 -1.784 4 -4 l 0 -4 c 0 2.216 -1.784 4 -4 4 l -38 0 c -2.216 0 -4 -1.784 -4 -4 z" opacity="0.1"/></g></g></svg>
